X:1
T:Title
%%score { 1 | 2 }
L:1/8
M:4/4
K:G
V:1 treble nm="Grand Piano"
V:2 bass 
V:1
 z4 z2[Q:1/4=106] D2 | B3 B _B2 =B2 | d2 d4 z2 | d B3 D2 A2 | [G,B,G]6 D2 | B3 B _B2 =B2 | %6
 e2 d4 d2 | d2 A2 [^CEA]2 [EGA]2 | [DFA]6 [=FB]2 | [Ec]3 [Ec] [Ec]2 [Ec]2 | B3 B B2 c2 | %11
 d2 d2 d2 [EAc]2 |[M:7/8] [GB]2 [FA]2 [GB]3 |[M:1/4] [Gd]2 |[M:4/4] [Fd]>[FA] [Fd]4 [Fc]2 | %15
 c>B B4 B2 | [^DFB]>[DFc] [DFB]4 [B,FA]2 |[M:3/4] [B,FA]>[B,EG] [B,EG]4 |[M:1/4] [B,EG]2 | %19
[M:4/4] [CEA]2 [EB]2 [Ed]2 [Ec]2 | [^DB]3 [B,DF] [B,EG]2 [^CGA]2 | [DGB]2 [DFc]2 [DGd]2 [Ge]2 | %22
[M:7/8] [GB]3 [FA] [DG]3 |] %23
V:2
 z4 z2 D,2 | [G,D]3 [G,D] [G,^C]2 [G,D]2 | [G,B,G]2 [G,B,G]4 z2 | %3
 [G,B,G][K:bass] [G,D]3 [D,B,]2 [D,F,C]2 | G,,6 D,2 | [G,D]3 [G,D] [G,^C]2 [G,D]2 | %6
 [G,_B,G]2 [G,=B,G]4 [G,B,G]2 | [A,F]2 [A,DF]2[K:bass] A,,2 A,,2 | D,6 G,2 | %9
 [C,G,]3 [C,G,] [C,G,]2 [C,G,]2 | [G,D]3 [G,D] [G,D]2 [G,A,D]2 | %11
 [G,B,G]2 [A,CF]2 [B,DG]2[K:bass] C,2 |[M:7/8] [D,D]2 [D,D]2 [G,D]3 |[M:1/4] [G,B,]2 | %14
[M:4/4] [D,A,]>[D,A,] [D,A,]4 [D,D]2 | [G,EG]>[G,DG] [G,DG]4 [G,DG]2 | B,,>B,, B,,4 B,,2 | %17
[M:3/4] E,>E, E,4 |[M:1/4] E,2 |[M:4/4] C,2 [B,,^G,]2 [A,,A,]2 [A,,A,]2 | [B,,F,]3 B,, E,2 E,2 | %21
 D,2 A,,2 B,,2 [C,A,]2 |[M:7/8] [D,D]3 [D,C] [G,B,]3 |] %23

